X:1
T:The Evening Train
M:4/4
L:1/4
K:E
 E G A| G4-| G E F G| E A,3| z2 E G| F4-| F E E G| B4| z B/2B/2 B c|\
B/2-G/2 G3| z G BG/2-F/2| E C3| z E/2E/2 E E|C/2-B,/2 B,3| z B,/2B,/2 C E|\
C/2-B,/2 B,3| z||
